extensions/images/svgs/MetaPavo.svg

<svg fill="none" height="20" viewBox="0 0 103 20" width="103" xmlns="http://www.w3.org/2000/svg"><g fill="#1c1b1d"><path d="m0 18.95h2.80566v-11.54009h.05079l3.87207 8.88669h2.33593l3.87205-8.88669h.0635v11.54009h2.8057v-18.509814h-2.6534l-5.20503 12.060514-5.30665-12.060514h-2.64062z"/><path d="m29.6816 13.364v-2.1836c-.0169-1.73501-.5543-3.09764-1.6123-4.08787-1.041-.97331-2.3147-1.46843-3.8213-1.48535-.6263 0-1.261.11426-1.9042.34277-.6517.22852-1.24.60091-1.7647 1.11719-.5163.50781-.9395 1.20182-1.2695 2.08203-.3301.86333-.4951 1.94663-.4951 3.25003 0 1.3541.1904 2.4544.5712 3.3008.347.8802.7998 1.5657 1.3584 2.0566.2878.237.5967.4359.9268.5967.3131.1862.6348.3343.9648.4443.6602.2031 1.3373.3047 2.0313.3047 1.8197.0169 3.4023-.694 4.748-2.1328l-1.917-1.6377c-.8463.8548-1.8069 1.2822-2.8818 1.2822-.9225 0-1.6673-.2793-2.2344-.8379-.6093-.5501-.914-1.3541-.914-2.4121zm-8.2138-2.1836c.0508-1.0241.3258-1.79848.8252-2.32322.5078-.49935 1.1595-.74903 1.955-.74903.7956 0 1.4473.24968 1.9551.74903.5163.52474.7914 1.29912.8252 2.32322z"/><path d="m32.6143 5.77222h-1.3204v2.01855h1.3204v7.90923c0 1.041.3046 1.8365.914 2.3867.5925.5755 1.3542.8633 2.2852.8633h1.3838v-2.501h-.9903c-.6432.0169-.9563-.3089-.9394-.9776v-7.68063h1.9297v-2.01855h-1.9297v-4.01172h-2.6533z"/><path d="m46.6172 18.95h2.6533v-9.00103c-.0169-1.60807-.5205-2.74218-1.5107-3.40234-.9903-.64323-2.3148-.95638-3.9737-.93945-1.9635-.03386-3.4489.60937-4.456 1.92969l2.082 1.58691c.2285-.38086.5417-.65169.9395-.8125.3808-.13542.9013-.20313 1.5615-.20313 1.8196-.03385 2.721.52898 2.7041 1.68848v1.38377h-3.669c-1.4049.0169-2.4713.3978-3.1992 1.1426-.7278.7279-1.0918 1.6462-1.0918 2.7549 0 1.1595.419 2.1116 1.2569 2.8564.7955.7617 1.9297 1.1511 3.4023 1.168.8971 0 1.5996-.11 2.1074-.3301.5163-.2116.8972-.5416 1.1426-.9902h.0508zm0-4.6338c0 .9902-.2074 1.625-.6221 1.9043-.457.2793-1.2399.4104-2.3486.3935-.8802 0-1.5108-.1735-1.8916-.5205-.3978-.3131-.5967-.694-.5967-1.1426-.0169-1.0241.7448-1.553 2.2852-1.5869h3.1738z"/><path d="m55.7451 3.09351h4.0498c.7617-.01693 1.4304.15657 2.0059.5205.3808.22006.6771.52051.8887.90137.2031.42318.3046.94369.3046 1.56152 0 .7448-.2496 1.42188-.749 2.03125-.5247.62631-1.3076.94792-2.3486.96485h-4.1514zm-2.8056 15.85649h2.8056v-7.2237h4.2656c1.9043-.0338 3.3516-.6432 4.3418-1.82811.9649-1.12565 1.4473-2.37402 1.4473-3.74511 0-1.01563-.1904-1.89584-.5713-2.64063-.3639-.77018-.8379-1.36263-1.4219-1.77734-.694-.55013-1.3795-.914065-2.0566-1.091799-.6771-.135417-1.3796-.203125-2.1074-.203125h-6.7031z"/><path d="m74.3691 18.95h2.6534v-9.00103c-.017-1.60807-.5205-2.74218-1.5108-3.40234-.9902-.64323-2.3148-.95638-3.9736-.93945-1.9636-.03386-3.4489.60937-4.4561 1.92969l2.0821 1.58691c.2285-.38086.5416-.65169.9394-.8125.3809-.13542.9014-.20313 1.5615-.20313 1.8197-.03385 2.7211.52898 2.7041 1.68848v1.38377h-3.6689c-1.405.0169-2.4714.3978-3.1992 1.1426-.7279.7279-1.0918 1.6462-1.0918 2.7549 0 1.1595.4189 2.1116 1.2568 2.8564.7956.7617 1.9297 1.1511 3.4024 1.168.8971 0 1.5996-.11 2.1074-.3301.5163-.2116.8971-.5416 1.1426-.9902h.0507zm0-4.6338c0 .9902-.2073 1.625-.622 1.9043-.4571.2793-1.2399.4104-2.3487.3935-.8802 0-1.5107-.1735-1.8916-.5205-.3978-.3131-.5966-.694-.5966-1.1426-.017-1.0241.7447-1.553 2.2851-1.5869h3.1738z"/><path d="m83.4209 18.95h2.1836l4.8369-13.17778h-2.8184l-3.0849 9.22948h-.0508l-3.0977-9.22948h-2.8056z"/><path d="m91.3555 12.3484c0 1.388.1142 2.446.3427 3.1738.237.7279.601 1.3584 1.0918 1.8916.364.4147.8718.7871 1.5235 1.1172.6432.3639 1.4684.5544 2.4756.5713 1.041-.0169 1.8831-.2074 2.5263-.5713.347-.1523.6306-.3343.8506-.5459.245-.1862.453-.3766.622-.5713.525-.5332.897-1.1637 1.117-1.8916.212-.7278.318-1.7858.318-3.1738s-.106-2.45444-.318-3.19923c-.22-.72786-.592-1.34147-1.117-1.84082-.347-.4401-.8378-.83366-1.4726-1.18066-.6432-.33008-1.4853-.50359-2.5263-.52051-1.0072.01692-1.8324.19043-2.4756.52051-.6517.347-1.1595.74056-1.5235 1.18066-.4908.49935-.8548 1.11296-1.0918 1.84082-.2285.74479-.3427 1.81123-.3427 3.19923zm8.2138.0254c0 .8971-.0423 1.5573-.1269 1.9804-.0847.4317-.2582.8125-.5205 1.1426-.1947.2539-.4824.4782-.8633.6729-.3639.1862-.7871.2793-1.2695.2793-.4486 0-.8633-.0931-1.2442-.2793-.3639-.1947-.6601-.419-.8887-.6729-.2285-.3301-.3935-.7109-.4951-1.1426-.1015-.4231-.1523-1.0917-.1523-2.0058 0-.9225.0508-1.5996.1523-2.0313.1016-.41468.2666-.77861.4951-1.09176.2286-.29622.5248-.52897.8887-.69824.3809-.17773.7956-.2666 1.2442-.2666.4824 0 .9056.08887 1.2695.2666.3809.16927.6686.40202.8633.69824.2623.31315.4358.67708.5205 1.09176.0846.4317.1269 1.1172.1269 2.0567z"/></g></svg>

<svg width="103" height="20" viewBox="0 0 103 20" fill="none" xmlns="http://www.w3.org/2000/svg">
<path d="M0 18.95H2.80566V7.40991H2.85645L6.72852 16.2966H9.06445L12.9365 7.40991H13V18.95H15.8057V0.440186H13.1523L7.94727 12.5007L2.64062 0.440186H0V18.95Z" fill="#1C1B1D"/>
<path d="M29.6816 13.364V11.1804C29.6647 9.44539 29.1273 8.08276 28.0693 7.09253C27.0283 6.11922 25.7546 5.6241 24.248 5.60718C23.6217 5.60718 22.987 5.72144 22.3438 5.94995C21.6921 6.17847 21.1038 6.55086 20.5791 7.06714C20.0628 7.57495 19.6396 8.26896 19.3096 9.14917C18.9795 10.0125 18.8145 11.0958 18.8145 12.3992C18.8145 13.7533 19.0049 14.8536 19.3857 15.7C19.7327 16.5802 20.1855 17.2657 20.7441 17.7566C21.0319 17.9936 21.3408 18.1925 21.6709 18.3533C21.984 18.5395 22.3057 18.6876 22.6357 18.7976C23.2959 19.0007 23.973 19.1023 24.667 19.1023C26.4867 19.1192 28.0693 18.4083 29.415 16.9695L27.498 15.3318C26.6517 16.1866 25.6911 16.614 24.6162 16.614C23.6937 16.614 22.9489 16.3347 22.3818 15.7761C21.7725 15.226 21.4678 14.422 21.4678 13.364H29.6816ZM21.4678 11.1804C21.5186 10.1563 21.7936 9.38192 22.293 8.85718C22.8008 8.35783 23.4525 8.10815 24.248 8.10815C25.0436 8.10815 25.6953 8.35783 26.2031 8.85718C26.7194 9.38192 26.9945 10.1563 27.0283 11.1804H21.4678Z" fill="#1C1B1D"/>
<path d="M32.6143 5.77222H31.2939V7.79077H32.6143V15.7C32.6143 16.741 32.9189 17.5365 33.5283 18.0867C34.1208 18.6622 34.8825 18.95 35.8135 18.95H37.1973V16.449H36.207C35.5638 16.4659 35.2507 16.1401 35.2676 15.4714V7.79077H37.1973V5.77222H35.2676V1.7605H32.6143V5.77222Z" fill="#1C1B1D"/>
<path d="M46.6172 18.95H49.2705V9.94897C49.2536 8.3409 48.75 7.20679 47.7598 6.54663C46.7695 5.9034 45.445 5.59025 43.7861 5.60718C41.8226 5.57332 40.3372 6.21655 39.3301 7.53687L41.4121 9.12378C41.6406 8.74292 41.9538 8.47209 42.3516 8.31128C42.7324 8.17586 43.2529 8.10815 43.9131 8.10815C45.7327 8.0743 46.6341 8.63713 46.6172 9.79663V11.1804H42.9482C41.5433 11.1973 40.4769 11.5782 39.749 12.323C39.0212 13.0509 38.6572 13.9692 38.6572 15.0779C38.6572 16.2374 39.0762 17.1895 39.9141 17.9343C40.7096 18.696 41.8438 19.0854 43.3164 19.1023C44.2135 19.1023 44.916 18.9923 45.4238 18.7722C45.9401 18.5606 46.321 18.2306 46.5664 17.782H46.6172V18.95ZM46.6172 14.3162C46.6172 15.3064 46.4098 15.9412 45.9951 16.2205C45.5381 16.4998 44.7552 16.6309 43.6465 16.614C42.7663 16.614 42.1357 16.4405 41.7549 16.0935C41.3571 15.7804 41.1582 15.3995 41.1582 14.9509C41.1413 13.9268 41.903 13.3979 43.4434 13.364H46.6172V14.3162Z" fill="#1C1B1D"/>
<path d="M55.7451 3.09351H59.7949C60.5566 3.07658 61.2253 3.25008 61.8008 3.61401C62.1816 3.83407 62.4779 4.13452 62.6895 4.51538C62.8926 4.93856 62.9941 5.45907 62.9941 6.0769C62.9941 6.8217 62.7445 7.49878 62.2451 8.10815C61.7204 8.73446 60.9375 9.05607 59.8965 9.073H55.7451V3.09351ZM52.9395 18.95H55.7451V11.7263H60.0107C61.915 11.6925 63.3623 11.0831 64.3525 9.89819C65.3174 8.77254 65.7998 7.52417 65.7998 6.15308C65.7998 5.13745 65.6094 4.25724 65.2285 3.51245C64.8646 2.74227 64.3906 2.14982 63.8066 1.73511C63.1126 1.18498 62.4271 0.821045 61.75 0.643311C61.0729 0.507894 60.3704 0.440186 59.6426 0.440186H52.9395V18.95Z" fill="#1C1B1D"/>
<path d="M74.3691 18.95H77.0225V9.94897C77.0055 8.3409 76.502 7.20679 75.5117 6.54663C74.5215 5.9034 73.1969 5.59025 71.5381 5.60718C69.5745 5.57332 68.0892 6.21655 67.082 7.53687L69.1641 9.12378C69.3926 8.74292 69.7057 8.47209 70.1035 8.31128C70.4844 8.17586 71.0049 8.10815 71.665 8.10815C73.4847 8.0743 74.3861 8.63713 74.3691 9.79663V11.1804H70.7002C69.2952 11.1973 68.2288 11.5782 67.501 12.323C66.7731 13.0509 66.4092 13.9692 66.4092 15.0779C66.4092 16.2374 66.8281 17.1895 67.666 17.9343C68.4616 18.696 69.5957 19.0854 71.0684 19.1023C71.9655 19.1023 72.668 18.9923 73.1758 18.7722C73.6921 18.5606 74.0729 18.2306 74.3184 17.782H74.3691V18.95ZM74.3691 14.3162C74.3691 15.3064 74.1618 15.9412 73.7471 16.2205C73.29 16.4998 72.5072 16.6309 71.3984 16.614C70.5182 16.614 69.8877 16.4405 69.5068 16.0935C69.109 15.7804 68.9102 15.3995 68.9102 14.9509C68.8932 13.9268 69.6549 13.3979 71.1953 13.364H74.3691V14.3162Z" fill="#1C1B1D"/>
<path d="M83.4209 18.95H85.6045L90.4414 5.77222H87.623L84.5381 15.0017H84.4873L81.3896 5.77222H78.584L83.4209 18.95Z" fill="#1C1B1D"/>
<path d="M91.3555 12.3484C91.3555 13.7364 91.4697 14.7944 91.6982 15.5222C91.9352 16.2501 92.2992 16.8806 92.79 17.4138C93.154 17.8285 93.6618 18.2009 94.3135 18.531C94.9567 18.8949 95.7819 19.0854 96.7891 19.1023C97.8301 19.0854 98.6722 18.8949 99.3154 18.531C99.6624 18.3787 99.946 18.1967 100.166 17.9851C100.411 17.7989 100.619 17.6085 100.788 17.4138C101.313 16.8806 101.685 16.2501 101.905 15.5222C102.117 14.7944 102.223 13.7364 102.223 12.3484C102.223 10.9604 102.117 9.89396 101.905 9.14917C101.685 8.42131 101.313 7.8077 100.788 7.30835C100.441 6.86825 99.9502 6.47469 99.3154 6.12769C98.6722 5.79761 97.8301 5.6241 96.7891 5.60718C95.7819 5.6241 94.9567 5.79761 94.3135 6.12769C93.6618 6.47469 93.154 6.86825 92.79 7.30835C92.2992 7.8077 91.9352 8.42131 91.6982 9.14917C91.4697 9.89396 91.3555 10.9604 91.3555 12.3484ZM99.5693 12.3738C99.5693 13.2709 99.527 13.9311 99.4424 14.3542C99.3577 14.7859 99.1842 15.1667 98.9219 15.4968C98.7272 15.7507 98.4395 15.975 98.0586 16.1697C97.6947 16.3559 97.2715 16.449 96.7891 16.449C96.3405 16.449 95.9258 16.3559 95.5449 16.1697C95.181 15.975 94.8848 15.7507 94.6562 15.4968C94.4277 15.1667 94.2627 14.7859 94.1611 14.3542C94.0596 13.9311 94.0088 13.2625 94.0088 12.3484C94.0088 11.4259 94.0596 10.7488 94.1611 10.3171C94.2627 9.90242 94.4277 9.53849 94.6562 9.22534C94.8848 8.92912 95.181 8.69637 95.5449 8.5271C95.9258 8.34937 96.3405 8.2605 96.7891 8.2605C97.2715 8.2605 97.6947 8.34937 98.0586 8.5271C98.4395 8.69637 98.7272 8.92912 98.9219 9.22534C99.1842 9.53849 99.3577 9.90242 99.4424 10.3171C99.527 10.7488 99.5693 11.4343 99.5693 12.3738Z" fill="#1C1B1D"/>
</svg>
